portfolio-htmlcssjs/img/img_flow1.svg

<svg fill="none" height="66" viewBox="0 0 49 66" width="49" xmlns="http://www.w3.org/2000/svg" xmlns:xlink="http://www.w3.org/1999/xlink"><clipPath id="a"><path d="m0 0h49v66h-49z"/></clipPath><g clip-path="url(#a)"><path d="m8.16667 0c-4.50443 0-8.16667 3.69961-8.16667 8.25v49.5c0 4.5504 3.66224 8.25 8.16667 8.25h32.66663c4.5045 0 8.1667-3.6996 8.1667-8.25v-49.5c0-4.55039-3.6622-8.25-8.1667-8.25zm4.08333 8.25h24.5c2.2586 0 4.0833 1.8434 4.0833 4.125v4.125c0 2.2816-1.8247 4.125-4.0833 4.125h-24.5c-2.25859 0-4.08333-1.8434-4.08333-4.125v-4.125c0-2.2816 1.82474-4.125 4.08333-4.125zm4.0833 20.625c0 1.094-.4302 2.1432-1.1959 2.9168-.7658.7736-1.8044 1.2082-2.8874 1.2082s-2.1216-.4346-2.88735-1.2082c-.76578-.7736-1.19598-1.8228-1.19598-2.9168s.4302-2.1432 1.19598-2.9168c.76575-.7736 1.80435-1.2082 2.88735-1.2082s2.1216.4346 2.8874 1.2082c.7657.7736 1.1959 1.8228 1.1959 2.9168zm-4.0833 16.5c-1.083 0-2.1216-.4346-2.88735-1.2082-.76578-.7736-1.19598-1.8228-1.19598-2.9168s.4302-2.1432 1.19598-2.9168c.76575-.7736 1.80435-1.2082 2.88735-1.2082s2.1216.4346 2.8874 1.2082c.7657.7736 1.1959 1.8228 1.1959 2.9168s-.4302 2.1432-1.1959 2.9168c-.7658.7736-1.8044 1.2082-2.8874 1.2082zm-4.08333 8.25c0-2.2816 1.82474-4.125 4.08333-4.125h12.25c2.2586 0 4.0833 1.8434 4.0833 4.125s-1.8247 4.125-4.0833 4.125h-12.25c-2.25859 0-4.08333-1.8434-4.08333-4.125zm16.33333-20.625c-1.083 0-2.1216-.4346-2.8874-1.2082-.7657-.7736-1.1959-1.8228-1.1959-2.9168s.4302-2.1432 1.1959-2.9168c.7658-.7736 1.8044-1.2082 2.8874-1.2082s2.1216.4346 2.8874 1.2082c.7657.7736 1.1959 1.8228 1.1959 2.9168s-.4302 2.1432-1.1959 2.9168c-.7658.7736-1.8044 1.2082-2.8874 1.2082zm4.0833 8.25c0 1.094-.4302 2.1432-1.1959 2.9168-.7658.7736-1.8044 1.2082-2.8874 1.2082s-2.1216-.4346-2.8874-1.2082c-.7657-.7736-1.1959-1.8228-1.1959-2.9168s.4302-2.1432 1.1959-2.9168c.7658-.7736 1.8044-1.2082 2.8874-1.2082s2.1216.4346 2.8874 1.2082c.7657.7736 1.1959 1.8228 1.1959 2.9168zm8.1667-8.25c-1.083 0-2.1216-.4346-2.8874-1.2082-.7657-.7736-1.1959-1.8228-1.1959-2.9168s.4302-2.1432 1.1959-2.9168c.7658-.7736 1.8044-1.2082 2.8874-1.2082s2.1216.4346 2.8874 1.2082c.7657.7736 1.1959 1.8228 1.1959 2.9168s-.4302 2.1432-1.1959 2.9168c-.7658.7736-1.8044 1.2082-2.8874 1.2082zm4.0833 8.25c0 1.094-.4302 2.1432-1.1959 2.9168-.7658.7736-1.8044 1.2082-2.8874 1.2082s-2.1216-.4346-2.8874-1.2082c-.7657-.7736-1.1959-1.8228-1.1959-2.9168s.4302-2.1432 1.1959-2.9168c.7658-.7736 1.8044-1.2082 2.8874-1.2082s2.1216.4346 2.8874 1.2082c.7657.7736 1.1959 1.8228 1.1959 2.9168zm-4.0833 16.5c-1.083 0-2.1216-.4346-2.8874-1.2082-.7657-.7736-1.1959-1.8228-1.1959-2.9168s.4302-2.1432 1.1959-2.9168c.7658-.7736 1.8044-1.2082 2.8874-1.2082s2.1216.4346 2.8874 1.2082c.7657.7736 1.1959 1.8228 1.1959 2.9168s-.4302 2.1432-1.1959 2.9168c-.7658.7736-1.8044 1.2082-2.8874 1.2082z" fill="#7f7f7f"/></g></svg>

<svg width="49" height="66" viewBox="0 0 49 66" fill="none" xmlns="http://www.w3.org/2000/svg">
<g clip-path="url(#clip0_1_410)">
<path d="M8.16667 0C3.66224 0 0 3.69961 0 8.25V57.75C0 62.3004 3.66224 66 8.16667 66H40.8333C45.3378 66 49 62.3004 49 57.75V8.25C49 3.69961 45.3378 0 40.8333 0H8.16667ZM12.25 8.25H36.75C39.0086 8.25 40.8333 10.0934 40.8333 12.375V16.5C40.8333 18.7816 39.0086 20.625 36.75 20.625H12.25C9.99141 20.625 8.16667 18.7816 8.16667 16.5V12.375C8.16667 10.0934 9.99141 8.25 12.25 8.25ZM16.3333 28.875C16.3333 29.969 15.9031 31.0182 15.1374 31.7918C14.3716 32.5654 13.333 33 12.25 33C11.167 33 10.1284 32.5654 9.36265 31.7918C8.59687 31.0182 8.16667 29.969 8.16667 28.875C8.16667 27.781 8.59687 26.7318 9.36265 25.9582C10.1284 25.1846 11.167 24.75 12.25 24.75C13.333 24.75 14.3716 25.1846 15.1374 25.9582C15.9031 26.7318 16.3333 27.781 16.3333 28.875ZM12.25 45.375C11.167 45.375 10.1284 44.9404 9.36265 44.1668C8.59687 43.3932 8.16667 42.344 8.16667 41.25C8.16667 40.156 8.59687 39.1068 9.36265 38.3332C10.1284 37.5596 11.167 37.125 12.25 37.125C13.333 37.125 14.3716 37.5596 15.1374 38.3332C15.9031 39.1068 16.3333 40.156 16.3333 41.25C16.3333 42.344 15.9031 43.3932 15.1374 44.1668C14.3716 44.9404 13.333 45.375 12.25 45.375ZM8.16667 53.625C8.16667 51.3434 9.99141 49.5 12.25 49.5H24.5C26.7586 49.5 28.5833 51.3434 28.5833 53.625C28.5833 55.9066 26.7586 57.75 24.5 57.75H12.25C9.99141 57.75 8.16667 55.9066 8.16667 53.625ZM24.5 33C23.417 33 22.3784 32.5654 21.6126 31.7918C20.8469 31.0182 20.4167 29.969 20.4167 28.875C20.4167 27.781 20.8469 26.7318 21.6126 25.9582C22.3784 25.1846 23.417 24.75 24.5 24.75C25.583 24.75 26.6216 25.1846 27.3874 25.9582C28.1531 26.7318 28.5833 27.781 28.5833 28.875C28.5833 29.969 28.1531 31.0182 27.3874 31.7918C26.6216 32.5654 25.583 33 24.5 33ZM28.5833 41.25C28.5833 42.344 28.1531 43.3932 27.3874 44.1668C26.6216 44.9404 25.583 45.375 24.5 45.375C23.417 45.375 22.3784 44.9404 21.6126 44.1668C20.8469 43.3932 20.4167 42.344 20.4167 41.25C20.4167 40.156 20.8469 39.1068 21.6126 38.3332C22.3784 37.5596 23.417 37.125 24.5 37.125C25.583 37.125 26.6216 37.5596 27.3874 38.3332C28.1531 39.1068 28.5833 40.156 28.5833 41.25ZM36.75 33C35.667 33 34.6284 32.5654 33.8626 31.7918C33.0969 31.0182 32.6667 29.969 32.6667 28.875C32.6667 27.781 33.0969 26.7318 33.8626 25.9582C34.6284 25.1846 35.667 24.75 36.75 24.75C37.833 24.75 38.8716 25.1846 39.6374 25.9582C40.4031 26.7318 40.8333 27.781 40.8333 28.875C40.8333 29.969 40.4031 31.0182 39.6374 31.7918C38.8716 32.5654 37.833 33 36.75 33ZM40.8333 41.25C40.8333 42.344 40.4031 43.3932 39.6374 44.1668C38.8716 44.9404 37.833 45.375 36.75 45.375C35.667 45.375 34.6284 44.9404 33.8626 44.1668C33.0969 43.3932 32.6667 42.344 32.6667 41.25C32.6667 40.156 33.0969 39.1068 33.8626 38.3332C34.6284 37.5596 35.667 37.125 36.75 37.125C37.833 37.125 38.8716 37.5596 39.6374 38.3332C40.4031 39.1068 40.8333 40.156 40.8333 41.25ZM36.75 57.75C35.667 57.75 34.6284 57.3154 33.8626 56.5418C33.0969 55.7682 32.6667 54.719 32.6667 53.625C32.6667 52.531 33.0969 51.4818 33.8626 50.7082C34.6284 49.9346 35.667 49.5 36.75 49.5C37.833 49.5 38.8716 49.9346 39.6374 50.7082C40.4031 51.4818 40.8333 52.531 40.8333 53.625C40.8333 54.719 40.4031 55.7682 39.6374 56.5418C38.8716 57.3154 37.833 57.75 36.75 57.75Z" fill="#7F7F7F"/>
</g>
<defs>
<clipPath id="clip0_1_410">
<rect width="49" height="66" fill="white"/>
</clipPath>
</defs>
</svg>
